X: 65
T:Pigeon on the Gate, The
M:C|
L:1/8
R:Reel
K:EDor
dc[|:BE~E2 Bdcd|BE~E2 dBAF|D2FD ADFE|DEFA BAFA|!
BE~E2 Bdcd|BE~E2 dBAF|D2FA dfec|1dBAF E2dc:|2dBAF E2FA|!
|:Beed efed|Bdef gfed|BABc dedB|AF~F2 DEFA|!
Beed efed|Bdef g2fg|afge fgec|1dBAF E2FA:|2dBAF E2dc|]!
